X: 66
T: Requiem / Tract Sicut cervus
N: Derived from Ock1013d-Requiem-Tract_Sicut_cervus.krn
C: Johannes Ockeghem
%%abc-version 2.0
%%abcx-abcm2ps-target-version 5.9.1 (29 Sep 2008)
%%abc-creator hum2abc beta
%%abcx-conversion-date 2019/02/17 07:26:15
%%abc-edited-by Jesse Rodin
%%abc-edited-by Chris Gage 07-11-2012
%%abcx-initial-encoding-date 2012/10/12/
%%humdrum-veritas 1504015729
%%humdrum-veritas-data 159228960
%%linebreak <none>
%%barnumbers 0
L: 1/4
M: 3/1
Q: 1/2=120
V: 1 clef=treble
V: 2 clef=treble
V: 3 clef=treble-8
V: 4 clef=treble-8
V: 5 clef=bass
K: C
[V:1] G4G4G4 | 
[V:2] G4G4E4 | 
[V:3] z12 | 
[V:4] z12 | 
[V:5] z12 | 
[V:1] A4B6G2 | 
[V:2] F4G4D2E2 | 
[V:3] z12 | 
[V:4] z12 | 
[V:5] z12 | 
[V:1] A4G4A4 | 
[V:2] F4z2G2F2A2- | 
[V:3] z12 | 
[V:4] z12 | 
[V:5] z12 | 
[V:1] A4G4F4 | 
[V:2] A2c4B2A2GA | 
[V:3] z12 | 
[V:4] z12 | 
[V:5] z12 | 
[V:1] G4G4c4 | 
[V:2] B2G4F2E4 | 
[V:3] z12 | 
[V:4] z12 | 
[V:5] z12 | 
[V:1] d6c2A4 | 
[V:2] D2F2G2A4c2 | 
[V:3] z12 | 
[V:4] z12 | 
[V:5] z12 | 
[V:1] G2F2G4A4 | 
[V:2] B2A4G4^F2 | 
[V:3] z12 | 
[V:4] z12 | 
[V:5] z12 | 
[V:1] G4z4G4 | 
[V:2] G8z2E2- | 
[V:3] z12 | 
[V:4] z12 | 
[V:5] z12 | 
[V:1] G3AB2c4B2 | 
[V:2] E2F2G2E2D4 | 
[V:3] z12 | 
[V:4] z12 | 
[V:5] z12 | 
[V:1] c4c4B2c2 | 
[V:2] C3DE2F2G2A2 | 
[V:3] z12 | 
[V:4] z12 | 
[V:5] z12 | 
[V:1] d4e6c2- | 
[V:2] B4c4c4 | 
[V:3] z12 | 
[V:4] z12 | 
[V:5] z12 | 
[V:1] c2A4c4B2 | 
[V:2] A4F3GA2G2- | 
[V:3] z12 | 
[V:4] z12 | 
[V:5] z12 | 
[V:1] A4G4c4 | 
[V:2] G2^F2G4z2c2- | 
[V:3] z12 | 
[V:4] z12 | 
[V:5] z12 | 
[V:1] A4c3BG4 | 
[V:2] c2A4c2B2d2 | 
[V:3] z12 | 
[V:4] z12 | 
[V:5] z12 | 
[V:1] A4F2D2C2F2- | 
[V:2] c2A4B2c2F2 | 
[V:3] z12 | 
[V:4] z12 | 
[V:5] z12 | 
[V:1] F2E2!fermata!F8 | 
[V:2] G4!fermata!F8 | 
[V:3] z12 | 
[V:4] z12 | 
[V:5] z12 | 
[V:1] z4z4F4 | 
[V:2] F4G4A4 | 
[V:3] z12 | 
[V:4] z12 | 
[V:5] z12 | 
[V:1] G4A4_B4 | 
[V:2] _B4A2F2G4 | 
[V:3] z12 | 
[V:4] z12 | 
[V:5] z12 | 
[V:1] A2F2G4A4 | 
[V:2] A4G2E2F4 | 
[V:3] z12 | 
[V:4] z12 | 
[V:5] z12 | 
[V:1] G2E2F4z2G2 | 
[V:2] z2G2A4G2E2 | 
[V:3] z12 | 
[V:4] z12 | 
[V:5] z12 | 
[V:1] A4G3FG2A2- | 
[V:2] F2D2z2d4c2- | 
[V:3] z12 | 
[V:4] z12 | 
[V:5] z12 | 
[V:1] A2G4^F2G4 | 
[V:2] c2B2A4G4 | 
[V:3] z12 | 
[V:4] z12 | 
[V:5] z12 | 
[V:1] z4G6G2 | 
[V:2] G6G2G4 | 
[V:3] z12 | 
[V:4] z12 | 
[V:5] z12 | 
[V:1] G4G4A4- | 
[V:2] G4E4D2C2 | 
[V:3] z12 | 
[V:4] z12 | 
[V:5] z12 | 
[V:1] A4G4z4 | 
[V:2] D2F2E2C4B,2 | 
[V:3] z12 | 
[V:4] z12 | 
[V:5] z12 | 
[V:1] G4G3AB2c2 | 
[V:2] C3DE2F2G2A2 | 
[V:3] z12 | 
[V:4] z12 | 
[V:5] z12 | 
[V:1] d2e4c4B2 | 
[V:2] B2c2G2E2D4 | 
[V:3] z12 | 
[V:4] z12 | 
[V:5] z12 | 
[V:1] c4c4A4 | 
[V:2] C8z2D2 | 
[V:3] z12 | 
[V:4] z12 | 
[V:5] z12 | 
[V:1] c4c8 | 
[V:2] E2C4F2G2A2- | 
[V:3] z12 | 
[V:4] z12 | 
[V:5] z12 | 
[V:1] _B4A4z2B2- | 
[V:2] A2G2A2c2_B2G2 | 
[V:3] z12 | 
[V:4] z12 | 
[V:5] z12 | 
[V:1] BAc2_B2G2F3D | 
[V:2] F4G2_B2A4 | 
[V:3] z12 | 
[V:4] z12 | 
[V:5] z12 | 
[V:1] E2D2z2d3c_B2 | 
[V:2] z2d3c_B2A2G2 | 
[V:3] z12 | 
[V:4] z12 | 
[V:5] z12 | 
[V:1] A4G2c4_B2 | 
[V:2] c4_B2A4G2- | 
[V:3] z12 | 
[V:4] z12 | 
[V:5] z12 | 
[V:1] A4G8 ||  
[V:2] G2^F2G8 ||  
[V:3] z12 ||  
[V:4] z12 ||  
[V:5] z12 ||  
[V:1]  [K:C] [K:clef=treble][M:4/2]z8 | 
[V:2]  [K:C] [K:clef=treble][M:4/2]z8 | 
[V:3]  [K:C] [K:clef=treble-8][M:4/2]z8 | 
[V:4]  [K:C] [K:clef=treble-8][M:4/2]G8 | 
[V:5]  [K:C] [K:clef=bass][M:4/2]G,6A,2 | 
[V:1] z8 | 
[V:2] z8 | 
[V:3] z8 | 
[V:4] G4A3B | 
[V:5] B,2A,B,C2F,2- | 
[V:1] z8 | 
[V:2] z8 | 
[V:3] z8 | 
[V:4] c2c4B2 | 
[V:5] F,2E,2D,4 | 
[V:1] z8 | 
[V:2] z8 | 
[V:3] z8 | 
[V:4] c4z4 | 
[V:5] C,4F,4- | 
[V:1] z8 | 
[V:2] z8 | 
[V:3] z8 | 
[V:4] c6c2 | 
[V:5] F,2F,2F,4 | 
[V:1] z8 | 
[V:2] z8 | 
[V:3] z8 | 
[V:4] c4c2d2- | 
[V:5] F,3G,A,2_B,2- | 
[V:1] z8 | 
[V:2] z8 | 
[V:3] z8 | 
[V:4] d2c3BG2 | 
[V:5] B,A,A,3G,G,2- | 
[V:1] z8 | 
[V:2] z8 | 
[V:3] z8 | 
[V:4] A4G4 | 
[V:5] G,2^F,2G,4 | 
[V:1] z8 | 
[V:2] z8 | 
[V:3] z8 | 
[V:4] A4c4 | 
[V:5] z2F,2E,2C,2 | 
[V:1] z8 | 
[V:2] z8 | 
[V:3] z8 | 
[V:4] B4A4 | 
[V:5] D,2E,2F,2E,F, | 
[V:1] z8 | 
[V:2] z8 | 
[V:3] z8 | 
[V:4] B4c4 | 
[V:5] G,F,E,D,C,2F,2- | 
[V:1] z8 | 
[V:2] z8 | 
[V:3] z8 | 
[V:4] A8 | 
[V:5] F,2G,2A,2F,2 | 
[V:1] z8 | 
[V:2] z8 | 
[V:3] z8 | 
[V:4] G4F3G | 
[V:5] G,2E,2D,3E, | 
[V:1] z8 | 
[V:2] z8 | 
[V:3] z8 | 
[V:4] _B2A4G2- | 
[V:5] D,2C,4_B,,2 | 
[V:1] z8 | 
[V:2] z8 | 
[V:3] z8 | 
[V:4] G2^F2G4- | 
[V:5] A,,4G,,2C,2- | 
[V:1] z8 | 
[V:2] z8 | 
[V:3] z8 | 
[V:4] G4D2E2 | 
[V:5] C,D,E,2F,2G,2 | 
[V:1] z8 | 
[V:2] z8 | 
[V:3] z8 | 
[V:4] F2G2z2G2 | 
[V:5] z2G,,2A,,2B,,2 | 
[V:1] z8 | 
[V:2] z8 | 
[V:3] z8 | 
[V:4] A2B2c2c2- | 
[V:5] C,2D,2E,2F,2 | 
[V:1] z8 | 
[V:2] z8 | 
[V:3] z8 | 
[V:4] c2B2c4- | 
[V:5] D,4C,4- | 
[V:1] z8 | 
[V:2] z8 | 
[V:3] z8 | 
[V:4] c4B2c2 | 
[V:5] C,4z2G,2- | 
[V:1] z8 | 
[V:2] z8 | 
[V:3] z8 | 
[V:4] d6cd | 
[V:5] G,2A,2B,2A,B, | 
[V:1] z8 | 
[V:2] z8 | 
[V:3] z8 | 
[V:4] e4c4- | 
[V:5] C2C,2E,3F, | 
[V:1] z8 | 
[V:2] z8 | 
[V:3] z8 | 
[V:4] c2A2B4 | 
[V:5] G,2A,4^G,2 | 
[V:1] z8 | 
[V:2] z8 | 
[V:3] z8 | 
[V:4] A2c6 | 
[V:5] A,4z2A,2 | 
[V:1] z8 | 
[V:2] z8 | 
[V:3] z8 | 
[V:4] B2G2A4 | 
[V:5] G,2E,2F,2D,2 | 
[V:1] z8 | 
[V:2] z8 | 
[V:3] z8 | 
[V:4] G2B2A4 | 
[V:5] z2G,4^F,2 | 
[V:1] z8 | 
[V:2] z8 | 
[V:3] z8 | 
[V:4] G4z4 | 
[V:5] G,6E,2- | 
[V:1] z8 | 
[V:2] z8 | 
[V:3] z8 | 
[V:4] c4A2B2 | 
[V:5] E,2C,2D,4 | 
[V:1] z8 | 
[V:2] z8 | 
[V:3] z8 | 
[V:4] c4G4 | 
[V:5] C,4_B,,2C,2 | 
[V:1] z8 | 
[V:2] z8 | 
[V:3] z8 | 
[V:4] F2G2_B3A | 
[V:5] D,2_E,3D,_B,,2- | 
[V:1] z8 | 
[V:2] z8 | 
[V:3] z8 | 
[V:4] F2z2_B4 | 
[V:5] B,,2_E,2D,3C, | 
[V:1] z8 | 
[V:2] z8 | 
[V:3] z8 | 
[V:4] A2F2G4 | 
[V:5] F,2F,4E,2 | 
[V:1] z8 | 
[V:2] z8 | 
[V:3] z8 | 
[V:4] !fermata!F8 | 
[V:5] !fermata!F,8 | 
[V:1] z8 | 
[V:2] z8 | 
[V:3] z8 | 
[V:4] C3DE2F2 | 
[V:5] z8 | 
[V:1] z8 | 
[V:2] z8 | 
[V:3] z8 | 
[V:4] G2E2F2G2 | 
[V:5] z2C,2D,3E, | 
[V:1] z8 | 
[V:2] z8 | 
[V:3] z8 | 
[V:4] A2_B2G4 | 
[V:5] F,2G,3F,/D,/E,2 | 
[V:1] z8 | 
[V:2] z8 | 
[V:3] z8 | 
[V:4] F4F4 | 
[V:5] F,3G,A,B,C2 | 
[V:1] z8 | 
[V:2] z8 | 
[V:3] z8 | 
[V:4] A4c4 | 
[V:5] z2F,3E,C,2 | 
[V:1] z8 | 
[V:2] z8 | 
[V:3] z8 | 
[V:4] _B4G4 | 
[V:5] G,2G,4F,E, | 
[V:1] z8 | 
[V:2] z8 | 
[V:3] z8 | 
[V:4] A4G4 | 
[V:5] F,4G,2_B,2 | 
[V:1] z8 | 
[V:2] z8 | 
[V:3] z8 | 
[V:4] F4G2_B2 | 
[V:5] A,2C2_B,2G,2- | 
[V:1] z8 | 
[V:2] z8 | 
[V:3] z8 | 
[V:4] A4G2F2 | 
[V:5] G,2F,2E,2D,2- | 
[V:1] z8 | 
[V:2] z8 | 
[V:3] z8 | 
[V:4] A2G4^F2 | 
[V:5] D,C,_B,,2A,,4 | 
[V:1] z8 | 
[V:2] z8 | 
[V:3] z8 | 
[V:4] G4A4 | 
[V:5] G,,4z2C,2- | 
[V:1] z8 | 
[V:2] z8 | 
[V:3] z8 | 
[V:4] z4G4 | 
[V:5] C,B,,C,2G,,2C,2- | 
[V:1] z8 | 
[V:2] z8 | 
[V:3] z8 | 
[V:4] G4A4 | 
[V:5] C,2E,2D,2F,2- | 
[V:1] z8 | 
[V:2] z8 | 
[V:3] z8 | 
[V:4] c4B4 | 
[V:5] F,E,C,2D,2G,,2 | 
[V:1] z8 | 
[V:2] z8 | 
[V:3] z8 | 
[V:4] c4c4 | 
[V:5] z2F,3E,C,2- | 
[V:1] z8 | 
[V:2] z8 | 
[V:3] z8 | 
[V:4] A4c4 | 
[V:5] C,2D,2C,2F,2- | 
[V:1] z8 | 
[V:2] z8 | 
[V:3] z8 | 
[V:4] c8 | 
[V:5] F,E,F,2G,2A,2- | 
[V:1] z8 | 
[V:2] z8 | 
[V:3] z8 | 
[V:4] c2_B4A2- | 
[V:5] A,2D,4C,2 | 
[V:1] z8 | 
[V:2] z8 | 
[V:3] z8 | 
[V:4] A2G2A4 | 
[V:5] _B,,4A,,4 | 
[V:1] z8 | 
[V:2] z8 | 
[V:3] z8 | 
[V:4] _B4A2G2 | 
[V:5] G,,4z2G,2- | 
[V:1] z8 | 
[V:2] z8 | 
[V:3] z8 | 
[V:4] A4z2G2 | 
[V:5] G,2F,2_B,3A,/B,/ | 
[V:1] z8 | 
[V:2] z8 | 
[V:3] z8 | 
[V:4] A2F2_B4 | 
[V:5] C3_B,A,G,G,2- | 
[V:1] z8 | 
[V:2] z8 | 
[V:3] z8 | 
[V:4] A4G4 | 
[V:5] G,2^F,2G,4- | 
[V:1] z8 | 
[V:2] z8 | 
[V:3] z8 | 
[V:4] z4G4 | 
[V:5] G,4z4 | 
[V:1] z8 | 
[V:2] z8 | 
[V:3] z8 | 
[V:4] G4A4 | 
[V:5] E,4F,4 | 
[V:1] z8 | 
[V:2] z8 | 
[V:3] z8 | 
[V:4] G8 | 
[V:5] z2G,4E,2 | 
[V:1] z8 | 
[V:2] z8 | 
[V:3] z8 | 
[V:4] A4c4 | 
[V:5] D,2F,3E,C,2- | 
[V:1] z8 | 
[V:2] z8 | 
[V:3] z8 | 
[V:4] G4A4- | 
[V:5] C,D,E,2A,,2C,2 | 
[V:1] z8 | 
[V:2] z8 | 
[V:3] z8 | 
[V:4] A2F2G4 | 
[V:5] D,2F,4E,2 | 
[V:1] z8 | 
[V:2] z8 | 
[V:3] z8 | 
[V:4] F8 | 
[V:5] F,4z4 | 
[V:1] z8 | 
[V:2] z8 | 
[V:3] z8 | 
[V:4] z4F4 | 
[V:5] _B,,4D,4 | 
[V:1] z8 | 
[V:2] z8 | 
[V:3] z8 | 
[V:4] A4c4- | 
[V:5] F,6E,D, | 
[V:1] z8 | 
[V:2] z8 | 
[V:3] z8 | 
[V:4] c4c4 | 
[V:5] C,4z2F,2- | 
[V:1] z8 | 
[V:2] z8 | 
[V:3] z8 | 
[V:4] c4c4 | 
[V:5] F,2E,4F,2 | 
[V:1] z8 | 
[V:2] z8 | 
[V:3] z8 | 
[V:4] B4c4 | 
[V:5] D,4C,2F,2- | 
[V:1] z8 | 
[V:2] z8 | 
[V:3] z8 | 
[V:4] A2G4c2 | 
[V:5] F,2E,2C,4 | 
[V:1] z8 | 
[V:2] z8 | 
[V:3] z8 | 
[V:4] B2G4A2 | 
[V:5] D,2E,2C,4 | 
[V:1] z8 | 
[V:2] z8 | 
[V:3] z8 | 
[V:4] _B2G2F4- | 
[V:5] _B,,6C,2 | 
[V:1] z8 | 
[V:2] z8 | 
[V:3] z8 | 
[V:4] F2G2A4- | 
[V:5] D,6E,2 | 
[V:1] z8 | 
[V:2] z8 | 
[V:3] z8 | 
[V:4] A2_B2c4- | 
[V:5] F,6E,2 | 
[V:1] z8 | 
[V:2] z8 | 
[V:3] z8 | 
[V:4] c4A4 | 
[V:5] C,4z2D,2 | 
[V:1] z8 | 
[V:2] z8 | 
[V:3] z8 | 
[V:4] c4G4 | 
[V:5] C,2F,2E,2C,2- | 
[V:1] z8 | 
[V:2] z8 | 
[V:3] z8 | 
[V:4] G8 | 
[V:5] C,2B,,2C,2E,2 | 
[V:1] z8 | 
[V:2] z8 | 
[V:3] z8 | 
[V:4] A4G2A2 | 
[V:5] D,2F,2E,2C,2 | 
[V:1] z8 | 
[V:2] z8 | 
[V:3] z8 | 
[V:4] B4cBAG | 
[V:5] D,4E,D,C,B,, | 
[V:1] z8 | 
[V:2] z8 | 
[V:3] z8 | 
[V:4] F3GA2_B2- | 
[V:5] A,,3B,,C,2D,2- | 
[V:1] z8 | 
[V:2] z8 | 
[V:3] z8 | 
[V:4] BAG4^F2 | 
[V:5] D,2_B,,2A,,4 | 
[V:1] z8 | 
[V:2] z8 | 
[V:3] z8 | 
[V:4] G8- | 
[V:5] G,,3A,,B,,2C,2 | 
[V:1] z8 | 
[V:2] z8 | 
[V:3] z8 | 
[V:4] G8 | 
[V:5] G,,2C,3D,E,2- | 
[V:1] z8 | 
[V:2] z8 | 
[V:3] z8 | 
[V:4] G4A4 | 
[V:5] E,D,/C,/G,4^F,2 | 
[V:1] z8 ||  
[V:2] z8 ||  
[V:3] z8 ||  
[V:4] G8 ||  
[V:5] G,8 ||  
[V:1]  [K:C] [K:clef=treble][M:3/1]G8A3G/A/ | 
[V:2]  [K:C] [K:clef=treble][M:3/1]G6E4F2 | 
[V:3]  [K:C] [K:clef=treble-8][M:3/1]z12 | 
[V:4]  [K:C] [K:clef=treble-8][M:3/1]z12 | 
[V:5]  [K:C] [K:clef=bass][M:3/1]z12 | 
[V:1] B2c4B2c4 | 
[V:2] G2E2D4C4 | 
[V:3] z12 | 
[V:4] z12 | 
[V:5] z12 | 
[V:1] c2c2c2c2c4 | 
[V:2] z4A2A2A2A2 | 
[V:3] z12 | 
[V:4] A2A2A2A2A4 | 
[V:5] z12 | 
[V:1] c4d4c4 | 
[V:2] A4G2B2c2A2- | 
[V:3] z12 | 
[V:4] z12 | 
[V:5] z12 | 
[V:1] B3GA4G4 | 
[V:2] AGG4^F2G4 | 
[V:3] z12 | 
[V:4] z12 | 
[V:5] z12 | 
[V:1] A2c2B2A4^G2 | 
[V:2] z12 | 
[V:3] z12 | 
[V:4] d2cde2A2B4 | 
[V:5] z12 | 
[V:1] A4B2c4A2 | 
[V:2] z2D4C2F4 | 
[V:3] z12 | 
[V:4] A2z2z4z4 | 
[V:5] z12 | 
[V:1] G6A3GFE | 
[V:2] E2C6D4 | 
[V:3] z12 | 
[V:4] z4z4z2d2 | 
[V:5] z12 | 
[V:1] D2G4^F2G4- | 
[V:2] z4z4z2G2- | 
[V:3] z12 | 
[V:4] B2G2A4G4 | 
[V:5] z12 | 
[V:1] G4z2A3Gc2- | 
[V:2] G2E4DCB,2C2 | 
[V:3] z12 | 
[V:4] z12 | 
[V:5] z12 | 
[V:1] c2B2c4c4 | 
[V:2] D4C6E2 | 
[V:3] z12 | 
[V:4] z12 | 
[V:5] z12 | 
[V:1] c4B2c2d4 | 
[V:2] E2F2G2A2F4 | 
[V:3] z12 | 
[V:4] z12 | 
[V:5] z12 | 
[V:1] e4c8 | 
[V:2] E4z2A4c2- | 
[V:3] z12 | 
[V:4] z12 | 
[V:5] z12 | 
[V:1] A4c6B2 | 
[V:2] c2F2E2A4G2- | 
[V:3] z12 | 
[V:4] z12 | 
[V:5] z12 | 
[V:1] A4G3BA4 | 
[V:2] G2F2E2G4^F2 | 
[V:3] z12 | 
[V:4] z12 | 
[V:5] z12 | 
[V:1] G4c4_B2A2- | 
[V:2] G4z4z4 | 
[V:3] z12 | 
[V:4] z2c4Bcd2A2 | 
[V:5] z12 | 
[V:1] AFG2A6c2- | 
[V:2] z4z4A2F2 | 
[V:3] z12 | 
[V:4] _B4A4F4 | 
[V:5] z12 | 
[V:1] c2_BAG4F4- | 
[V:2] E2F4E2D2C2- | 
[V:3] z12 | 
[V:4] z4z4F3G | 
[V:5] z12 | 
[V:1] F2E2D4C2F2- | 
[V:2] C2A2_B2G2A2c2 | 
[V:3] z12 | 
[V:4] ABc2z2B2c2F2 | 
[V:5] z12 | 
[V:1] F2E2!fermata!F8 | 
[V:2] _B4!fermata!A8 | 
[V:3] z12 | 
[V:4] G4!fermata!F8 | 
[V:5] z12 | 
[V:1] z4F4A3B | 
[V:2] F6A3Bc2 | 
[V:3] z12 | 
[V:4] z12 | 
[V:5] z12 | 
[V:1] c6B2G4 | 
[V:2] F2E2C2G4E2 | 
[V:3] z12 | 
[V:4] z12 | 
[V:5] z12 | 
[V:1] A4G4F4 | 
[V:2] F4G2_B2A2c2- | 
[V:3] z12 | 
[V:4] z12 | 
[V:5] z12 | 
[V:1] G4A4z2G2- | 
[V:2] c_BG3EF2z4 | 
[V:3] z12 | 
[V:4] z4z4G3F | 
[V:5] z12 | 
[V:1] G2F2G4A4 | 
[V:2] z12 | 
[V:3] z12 | 
[V:4] E2D2E2G4^F2 | 
[V:5] z12 | 
[V:1] G4z4G4 | 
[V:2] G3AB6E2- | 
[V:3] z12 | 
[V:4] z12 | 
[V:5] z12 | 
[V:1] G4A4G4 | 
[V:2] EDE2D2F2E2G2- | 
[V:3] z12 | 
[V:4] z12 | 
[V:5] z12 | 
[V:1] G8z2A2- | 
[V:2] G2C3DEFG2F2 | 
[V:3] z12 | 
[V:4] z12 | 
[V:5] z12 | 
[V:1] ABc4B2c4 | 
[V:2] G2C2D4C4- | 
[V:3] z12 | 
[V:4] z12 | 
[V:5] z12 | 
[V:1] c4A4c4 | 
[V:2] C4z2D2E2C2 | 
[V:3] z12 | 
[V:4] z12 | 
[V:5] z12 | 
[V:1] c8_B2A2- | 
[V:2] F3GE4z4 | 
[V:3] z12 | 
[V:4] z4c2Bcd2A2 | 
[V:5] z12 | 
[V:1] A2G2A4z4 | 
[V:2] z4z4c4 | 
[V:3] z12 | 
[V:4] _B4A8 | 
[V:5] z12 | 
[V:1] _B4A4G2G2- | 
[V:2] _B2G2A2F2G2D2 | 
[V:3] z12 | 
[V:4] z4z4G2_B2 | 
[V:5] z12 | 
[V:1] G2F2G3DG2F2 | 
[V:2] z2c2_B2d4d2 | 
[V:3] z12 | 
[V:4] A4G3FG2D2 | 
[V:5] z12 | 
[V:1] _B2AcBA/G/G4^F2 | 
[V:2] d4d4c3A | 
[V:3] z12 | 
[V:4] G2F2_B4A4 | 
[V:5] z12 | 
[V:1] G12 ||  
[V:2] B12 ||  
[V:3] z12 ||  
[V:4] G12 ||  
[V:5] z12 ||  
[V:1]  [K:C] [K:clef=treble][M:3/1]A8G4 | 
[V:2]  [K:C] [K:clef=treble][M:3/1]z12 | 
[V:3]  [K:C] [K:clef=treble-8][M:3/1]c6d2e4 | 
[V:4]  [K:C] [K:clef=treble-8][M:3/1]c8B4 | 
[V:5]  [K:C] [K:clef=bass][M:3/1]F,8G,4 | 
[V:1] A4c6BA | 
[V:2] z12 | 
[V:3] f3ec2d2e4 | 
[V:4] c4F4G4- | 
[V:5] F,6E,D,C,4 | 
[V:1] G4A2G4F2- | 
[V:2] z12 | 
[V:3] c4z4z4 | 
[V:4] G4c4A2_B2 | 
[V:5] C,4C,4D,2_B,,2 | 
[V:1] F2E2F4z4 | 
[V:2] z12 | 
[V:3] c4c8- | 
[V:4] G4F6G2 | 
[V:5] C,4z4F,4- | 
[V:1] F3GA4G2c2- | 
[V:2] z12 | 
[V:3] c4d4G4 | 
[V:4] A4F4c2e2 | 
[V:5] F,4D,4E,2C,2 | 
[V:1] c2B2c8 | 
[V:2] z12 | 
[V:3] z4z4c4 | 
[V:4] d4c8 | 
[V:5] G,4C,4F,2E,2 | 
[V:1] z4c4c4 | 
[V:2] z12 | 
[V:3] d4G2F2G2A2 | 
[V:4] F4z4c4 | 
[V:5] D,4C,2D,2E,2F,2 | 
[V:1] B4c3BAGG2- | 
[V:2] z12 | 
[V:3] F4G4A2B2 | 
[V:4] d4e4c2B2 | 
[V:5] D,4C,4F,2G,2 | 
[V:1] G2F2G3FEDD2 | 
[V:2] z12 | 
[V:3] d8z4 | 
[V:4] A4G6F2 | 
[V:5] D,4z2_B,4A,2 | 
[V:1] z2_B4A2G2F2 | 
[V:2] z12 | 
[V:3] e2f2d2e2d3c | 
[V:4] E2D2d2c2B2A2 | 
[V:5] G,2F,2G,2z2G,2D,2 | 
[V:1] G4A6F2 | 
[V:2] z12 | 
[V:3] e4f6ed | 
[V:4] B4c6A2 | 
[V:5] G,4F,8 | 
[V:1] F12- | 
[V:2] z12 | 
[V:3] c6Bcd4- | 
[V:4] A8A4- | 
[V:5] F,6D,2D,4- | 
[V:1] F4G8 |]  
[V:2] z12 |]  
[V:3] d12 |]  
[V:4] A4G8 |]  
[V:5] D,4G,8 |]  



